X: 30
T: Praeludia organi op. 5 – Maestoso
C: Franciszek Walczyński
%%abc-version 2.0
%%abcx-abcm2ps-target-version 5.9.1 (29 Sep 2008)
%%abc-creator hum2abc beta
%%abcx-conversion-date 2021/10/04 07:38:39
%%abc-edited-by Andrzej Borzym
%%abc-edited-by Katarzyna Serwa
%%abcx-initial-encoding-date 2021-07-26
%%humdrum-veritas 3128231153
%%humdrum-veritas-data 2123207196
%%linebreak <none>
%%barnumbers 0
L: 1/8
M: 3/4
N: Derived from pl-kozmzk--mzk-m-159--019_walczynski-franciszek--praeludia-organi-op-5-maestoso.krn
Q: "19. Maestoso."
%%staves {1 2}
V: 1 clef=treble
V: 2 clef=bass
K: D
[V:1] z6 & z6 | 
[V:2] z6 & D,C,D,C,B,,2 | 
[V:1] z6 & z6 | 
[V:2] z6 & C,2B,,2^A,,2 | 
[V:1] z6 & z6 | 
[V:2] DCDCB,2 & B,,2>C,2D,2 | 
[V:1] z6 & z6 | 
[V:2] C2B,2^A,2 & E,2^E,2F,=E, | 
[V:1] z6 & z6 | 
[V:2] B,2D2C2 & D,2B,,2E,2 | 
[V:1] z6 & z6 | 
[V:2] ^A,2B,CDE & F,E, D,^A,,B,,C, | 
[V:1] z6 & FEFED2 | 
[V:2] A,G,A,G,F,2 & D,6 | 
[V:1] z6 & E2D2C2 | 
[V:2] G,2F,^G, A,=G, & ^A,,2B,,2=A,,2 | 
[V:1] dcdcB2 & DEFED2 | 
[V:2] F,^A,B,A,B,2 & B,,C,B,,F,G,2 | 
[V:1] c2B2^A2 & G2^G2F2 | 
[V:2] B,CD2C2 & E,2^E,2F,=E, | 
[V:1] B2d2c2 & F2B2G2 | 
[V:2] B,2F2E2 & D,2B,,2E,2 | 
[V:1] ^A2B4 & F2F4 | 
[V:2] ED/C/ DCDB, & F,2B,,4 | 
[V:1] B2=cB^AB & ^DE/F/E4- | 
[V:2] =A,2G,4 & B,,6- | 
[V:1] F4G2 & E2^D2E2 | 
[V:2] =CB,/^A,/ B,=A,G,E, & B,,6- | 
[V:1] G2EEFG & C2-CC^DE | 
[V:2] E,^D,/E,/ G,G,F,E, & B,,6- | 
[V:1] !fermata!F6 & ^D6 |]  
[V:2] B,6 & !fermata!B,,6 |]  


